X:449
T:Shannonaires' Jig
T:Silver Vale, The
R:jig
H:Unusual version of this tune. More standard version is #174
Z:id:hn-jig-449
M:6/8
K:D
dAF AGF | dAF AGF | A,CE GFE | A,CE GFE |
DFA DGB | Adc d2e | fed cBA |1 GFE D3 :|2 GFE D2e ||
|: ~f3 a^ga | fdc de=f | ede gfg | e=cB cde |
fef gfg | a^ga ba=g | fed cBA |1 GFE D2e :|2 GFE D3 ||

